common/src/main/resources/icons/expui/diff/revert@14x14.svg

<svg xmlns="http://www.w3.org/2000/svg" width="14" height="14" viewBox="0 0 24 24"><path fill="#CDD3DE" d="M12 3a9 9 0 0 0-9 9H0l4 4 4-4H5a7 7 0 0 1 7-7 7 7 0 0 1 7 7 7 7 0 0 1-7 7c-1.5 0-2.91-.5-4.06-1.3L6.5 19.14A9.1 9.1 0 0 0 12 21a9 9 0 0 0 9-9 9 9 0 0 0-9-9m2 9a2 2 0 0 0-2-2 2 2 0 0 0-2 2 2 2 0 0 0 2 2 2 2 0 0 0 2-2"/><circle cx="12" cy="12" r="2.4" fill="#C792EA"/></svg>

<!--
  - The MIT License (MIT)
  -
  - Copyright (c) 2015-2023 Elior "Mallowigi" Boukhobza
  -
  - Permission is hereby granted, free of charge, to any person obtaining a copy
  - of this software and associated documentation files (the "Software"), to deal
  - in the Software without restriction, including without limitation the rights
  - to use, copy, modify, merge, publish, distribute, sublicense, and/or sell
  - copies of the Software, and to permit persons to whom the Software is
  - furnished to do so, subject to the following conditions:
  -
  - The above copyright notice and this permission notice shall be included in all
  - copies or substantial portions of the Software.
  -
  - THE SOFTWARE IS PROVIDED "AS IS", WITHOUT WARRANTY OF ANY KIND, EXPRESS OR
  - IMPLIED, INCLUDING BUT NOT LIMITED TO THE WARRANTIES OF MERCHANTABILITY,
  - FITNESS FOR A PARTICULAR PURPOSE AND NONINFRINGEMENT. IN NO EVENT SHALL THE
  - AUTHORS OR COPYRIGHT HOLDERS BE LIABLE FOR ANY CLAIM, DAMAGES OR OTHER
  - LIABILITY, WHETHER IN AN ACTION OF CONTRACT, TORT OR OTHERWISE, ARISING FROM,
  - OUT OF OR IN CONNECTION WITH THE SOFTWARE OR THE USE OR OTHER DEALINGS IN THE
  - SOFTWARE.
  -
  -->


<svg xmlns="http://www.w3.org/2000/svg" version="1.1" width="14px" height="14px" viewBox="0 0 24 24">
  <path fill="#CDD3DE"
        d="M12,3A9,9 0 0,0 3,12H0L4,16L8,12H5A7,7 0 0,1 12,5A7,7 0 0,1 19,12A7,7 0 0,1 12,19C10.5,19 9.09,18.5 7.94,17.7L6.5,19.14C8.04,20.3 9.94,21 12,21A9,9 0 0,0 21,12A9,9 0 0,0 12,3M14,12A2,2 0 0,0 12,10A2,2 0 0,0 10,12A2,2 0 0,0 12,14A2,2 0 0,0 14,12Z"/>
  <ellipse stroke="#C792EA" ry="2.4" rx="2.4" id="svg_5" cy="12" cx="12" stroke-width="0" fill="#C792EA"/>
</svg>
